synths/sATOM.svg

<svg width="42" height="42" viewBox="0 0 42 42" fill="none" xmlns="http://www.w3.org/2000/svg">
<g clip-path="url(#clip0_7277_57973)">
<mask id="mask0_7277_57973" style="mask-type:alpha" maskUnits="userSpaceOnUse" x="0" y="0" width="42" height="42">
<circle cx="21" cy="21" r="21" fill="url(#paint0_linear_7277_57973)"/>
</mask>
<g mask="url(#mask0_7277_57973)">
<circle cx="21" cy="21" r="21" fill="#34EDB3"/>
<circle cx="21" cy="21" r="18.2" fill="white"/>
</g>
<circle cx="21" cy="21" r="16.1" fill="#06061B"/>
<g clip-path="url(#clip1_7277_57973)">
<path d="M21 37.1C29.8918 37.1 37.1 29.8918 37.1 21C37.1 12.1082 29.8918 4.90002 21 4.90002C12.1082 4.90002 4.90002 12.1082 4.90002 21C4.90002 29.8918 12.1082 37.1 21 37.1Z" fill="#2E3148"/>
<path d="M21 30.3421C26.1595 30.3421 30.342 26.1595 30.342 21.0001C30.342 15.8406 26.1595 11.6581 21 11.6581C15.8406 11.6581 11.658 15.8406 11.658 21.0001C11.658 26.1595 15.8406 30.3421 21 30.3421Z" fill="#1B1E36"/>
<path d="M21.0331 6.95398C19.2952 6.95398 17.886 13.2575 17.886 21.0332C17.886 28.809 19.2952 35.1125 21.0331 35.1125C22.771 35.1125 24.1802 28.809 24.1802 21.0332C24.1802 13.2575 22.771 6.95398 21.0331 6.95398ZM21.2504 34.3179C21.0517 34.583 20.853 34.3841 20.853 34.3841C20.0526 33.4568 19.6524 31.7339 19.6524 31.7339C18.2525 27.2286 18.5857 17.5554 18.5857 17.5554C19.2436 9.87581 20.4404 8.06166 20.8477 7.6589C20.8893 7.6178 20.944 7.59268 21.0023 7.58797C21.0606 7.58325 21.1187 7.59925 21.1663 7.63314C21.7573 8.05187 22.2529 9.80304 22.2529 9.80304C23.7164 15.2359 23.5839 20.3376 23.5839 20.3376C23.7164 24.7767 22.8505 29.7458 22.8505 29.7458C22.184 33.5222 21.2504 34.3179 21.2504 34.3179Z" fill="#6F7390"/>
<path d="M33.2453 14.0267C32.38 12.5187 26.2117 14.4334 19.4637 18.3029C12.7158 22.1723 7.95582 26.5318 8.82046 28.0391C9.68509 29.5464 15.8541 27.6324 22.6021 23.7629C29.35 19.8935 34.11 15.534 33.2453 14.0267ZM9.61876 27.8322C9.28749 27.7905 9.36232 27.5182 9.36232 27.5182C9.76868 26.3628 11.0618 25.1582 11.0618 25.1582C14.2745 21.7018 22.8314 17.1771 22.8314 17.1771C29.8194 13.926 31.9899 14.0631 32.5405 14.2147C32.597 14.2305 32.6462 14.2658 32.6792 14.3143C32.7122 14.3628 32.7269 14.4214 32.7208 14.4798C32.6546 15.2011 31.3791 16.502 31.3791 16.502C27.3977 20.4766 22.9063 22.9009 22.9063 22.9009C19.1218 25.2257 14.3806 26.9464 14.3806 26.9464C10.7731 28.2463 9.61889 27.8322 9.61889 27.8322H9.61876Z" fill="#6F7390"/>
<path d="M33.2148 28.0893C34.0868 26.5853 29.3388 22.2058 22.6145 18.3073C15.8903 14.4088 9.7227 12.4704 8.85149 13.9769C7.98029 15.4835 12.7275 19.8604 19.4556 23.7589C26.1837 27.6574 32.3436 29.596 33.2148 28.0893ZM9.42929 14.5581C9.30049 14.2527 9.57239 14.1792 9.57239 14.1792C10.7762 13.9518 12.467 14.4699 12.467 14.4699C17.0671 15.5174 25.2698 20.6555 25.2698 20.6555C31.5852 25.0747 32.5538 27.0213 32.6989 27.5738C32.7137 27.6305 32.708 27.6906 32.6828 27.7434C32.6575 27.7963 32.6145 27.8386 32.5611 27.8627C31.9026 28.1643 30.1388 27.715 30.1388 27.715C24.7025 26.2574 20.3549 23.5867 20.3549 23.5867C16.4485 21.4798 12.5858 18.2379 12.5858 18.2379C9.6507 15.7666 9.43019 14.5614 9.43019 14.5614L9.42929 14.5581Z" fill="#6F7390"/>
<path d="M21 22.6564C21.9148 22.6564 22.6564 21.9148 22.6564 21C22.6564 20.0852 21.9148 19.3436 21 19.3436C20.0852 19.3436 19.3436 20.0852 19.3436 21C19.3436 21.9148 20.0852 22.6564 21 22.6564Z" fill="#B7B9C8"/>
<path d="M27.7912 15.6333C28.3218 15.6333 28.7519 15.1883 28.7519 14.6395C28.7519 14.0906 28.3218 13.6456 27.7912 13.6456C27.2606 13.6456 26.8304 14.0906 26.8304 14.6395C26.8304 15.1883 27.2606 15.6333 27.7912 15.6333Z" fill="#B7B9C8"/>
<path d="M12.0224 19.0124C12.553 19.0124 12.9831 18.5675 12.9831 18.0186C12.9831 17.4697 12.553 17.0248 12.0224 17.0248C11.4918 17.0248 11.0617 17.4697 11.0617 18.0186C11.0617 18.5675 11.4918 19.0124 12.0224 19.0124Z" fill="#B7B9C8"/>
<path d="M19.0455 31.2033C19.5761 31.2033 20.0062 30.7584 20.0062 30.2095C20.0062 29.6606 19.5761 29.2157 19.0455 29.2157C18.5149 29.2157 18.0848 29.6606 18.0848 30.2095C18.0848 30.7584 18.5149 31.2033 19.0455 31.2033Z" fill="#B7B9C8"/>
</g>
</g>
<defs>
<linearGradient id="paint0_linear_7277_57973" x1="21" y1="0" x2="21" y2="61.4091" gradientUnits="userSpaceOnUse">
<stop stop-color="#08021E"/>
<stop offset="1" stop-color="#1F0777"/>
</linearGradient>
<clipPath id="clip0_7277_57973">
<rect width="42" height="42" fill="white"/>
</clipPath>
<clipPath id="clip1_7277_57973">
<rect width="32.2" height="32.2" fill="white" transform="translate(4.90002 4.90002)"/>
</clipPath>
</defs>
</svg>

<svg xmlns="http://www.w3.org/2000/svg" width="42" height="42" fill="none"><g clip-path="url(#a)"><mask id="c" width="42" height="42" x="0" y="0" maskUnits="userSpaceOnUse" style="mask-type:alpha"><circle cx="21" cy="21" r="21" fill="url(#b)"/></mask><g mask="url(#c)"><circle cx="21" cy="21" r="21" fill="#34EDB3"/><circle cx="21" cy="21" r="18.2" fill="#fff"/></g><circle cx="21" cy="21" r="16.1" fill="#06061B"/><g clip-path="url(#d)"><path fill="#2E3148" d="M21 37.1c8.892 0 16.1-7.208 16.1-16.1 0-8.892-7.208-16.1-16.1-16.1-8.892 0-16.1 7.208-16.1 16.1 0 8.892 7.208 16.1 16.1 16.1Z"/><path fill="#1B1E36" d="M21 30.342a9.342 9.342 0 1 0 0-18.684 9.342 9.342 0 0 0 0 18.684Z"/><path fill="#6F7390" d="M21.033 6.954c-1.738 0-3.147 6.304-3.147 14.08 0 7.775 1.41 14.078 3.147 14.078 1.738 0 3.147-6.303 3.147-14.079 0-7.776-1.409-14.079-3.147-14.079Zm.217 27.364c-.198.265-.397.066-.397.066-.8-.927-1.2-2.65-1.2-2.65-1.4-4.505-1.067-14.179-1.067-14.179.658-7.68 1.854-9.493 2.262-9.896a.248.248 0 0 1 .318-.026c.591.419 1.087 2.17 1.087 2.17 1.463 5.433 1.33 10.535 1.33 10.535.133 4.439-.732 9.408-.732 9.408-.667 3.776-1.6 4.572-1.6 4.572Z"/><path fill="#6F7390" d="M33.245 14.027c-.865-1.508-7.033.406-13.781 4.276-6.748 3.87-11.508 8.229-10.644 9.736.865 1.507 7.034-.407 13.782-4.276 6.748-3.87 11.508-8.229 10.643-9.736ZM9.62 27.832c-.332-.041-.257-.314-.257-.314.407-1.155 1.7-2.36 1.7-2.36 3.213-3.456 11.77-7.98 11.77-7.98 6.987-3.252 9.158-3.115 9.709-2.963a.249.249 0 0 1 .18.265c-.066.721-1.342 2.022-1.342 2.022-3.981 3.975-8.473 6.399-8.473 6.399-3.784 2.325-8.525 4.045-8.525 4.045-3.608 1.3-4.762.886-4.762.886Z"/><path fill="#6F7390" d="M33.215 28.09c.872-1.505-3.876-5.884-10.6-9.783C15.89 14.41 9.723 12.47 8.85 13.977c-.87 1.506 3.876 5.883 10.605 9.782 6.728 3.898 12.888 5.837 13.759 4.33ZM9.429 14.557c-.129-.305.143-.379.143-.379 1.204-.227 2.895.29 2.895.29 4.6 1.048 12.803 6.187 12.803 6.187 6.315 4.419 7.284 6.365 7.429 6.918a.248.248 0 0 1-.138.289c-.658.301-2.422-.148-2.422-.148-5.436-1.458-9.784-4.128-9.784-4.128-3.907-2.107-7.77-5.35-7.77-5.35-2.934-2.47-3.155-3.676-3.155-3.676v-.003Z"/><path fill="#B7B9C8" d="M21 22.656a1.656 1.656 0 1 0 0-3.312 1.656 1.656 0 0 0 0 3.312ZM27.791 15.633c.53 0 .96-.445.96-.993 0-.55-.43-.994-.96-.994s-.96.445-.96.993c0 .55.43.994.96.994ZM12.022 19.012c.531 0 .961-.445.961-.993 0-.55-.43-.994-.96-.994-.531 0-.961.445-.961.994 0 .549.43.993.96.993ZM19.046 31.203c.53 0 .96-.445.96-.994 0-.548-.43-.993-.96-.993-.531 0-.961.445-.961.993 0 .55.43.994.96.994Z"/></g></g><defs><clipPath id="a"><path fill="#fff" d="M0 0h42v42H0z"/></clipPath><clipPath id="d"><path fill="#fff" d="M4.9 4.9h32.2v32.2H4.9z"/></clipPath><linearGradient id="b" x1="21" x2="21" y1="0" y2="61.409" gradientUnits="userSpaceOnUse"><stop stop-color="#08021E"/><stop offset="1" stop-color="#1F0777"/></linearGradient></defs></svg>
